X:1
T:Our Soldier Heroes Sleeping
T:Our Soldier Heroes Sleeping
T: Maro Lummis Bartlett
T:Neva Parkhill Prentice, 1905
T:Public Domain Courtesy of the Cyber Hymnal™
T:Public Domain Courtesy of the Cyber Hymnal™
C:Maro Lummis Bartlett
Z:Public Domain
Z:Courtesy of the Cyber Hymnal™
%%score ( 1 2 ) 3
L:1/8
Q:1/4=100
M:4/4
K:Ab
V:1 treble 
V:2 treble 
V:3 bass 
V:1
 [CE] | [Ec][Ec] [Ec]>[DB] [CA] [CA]2 [EA] | [FA][FB] [FA]>[DF] [CE]3 [CE] | %3
w: 1.~They’ll|nev- er cross the val- leys, Or|crys- tal wa- ters sweet, They’ll|
w: 2.~We’ll|call our hosts to- ge- ther, From|o- ver land and sea, They’ll|
w: 3.~They|fought and won the bat- tle, Those|he- ro boys of ours, And|
w: 4.~Their|feet shall cross the val- leys, And|E- den’s riv- ers sweet, They’ll|
 [CE][CA] [CA]>[DB] [Ec] [Ec]2 [Ec] | [=Dc][DB] [DB]>[DF] [EB]3 [EB] | %5
w: nev- er face the foe- man, When|charg- ing ar- mies meet; O’er|
w: nev- er hear the trum- pet, Or|sound of re- veil- le; Our|
w: we are left to weep them And|strew their graves with flow’rs; They’ve|
w: lie be- side the fount- ains, Where|an- gels joy- ful meet; But|
 [EB][Ed] [Ec]>[DB] [CA] [CA]2 E | [DF]>[FA] [EG][DF] [CE]3 [CE] | %7
w: mount- ains, vast and hoar- y, O’er|hill and grass- y plain, Our|
w: count- ry’s flag shall lead them, A|host as strong and brave, As|
w: won the palms of glo- ry, They|wear the rose of grace, Be-|
w: ’mid their count- ry’s bat- tles, O’er|a- ny earth- y plain, Our|
 [DF][DG][EA][Ed] [Ec] !fermata![Ec]2 [EA] | [DF]<[FB] [EA]>[EG] !fermata![EA]3 ||"^Refrain" [EA] | %10
w: sol- dier he- roes sleep- ing, Shall|nev- er march a- gain.||
w: they who sleep in si- lence, Where|flow- ers o’er them wave.|They’ll|
w: neath His crown of sun- light Their|souls shall see His face.||
w: sol- dier he- roes sleep- ing, Shall|nev- er march a- gain.||
 [GB]<[GB] [FB]>[FB] [GB]3 [GB] | [Ac]<[Ac] [GB]>[GB] [Ac]3 [CE] | %12
w: ||
w: nev- er march a- gain, They’ll|nev- er march a- gain, Our|
w: ||
w: ||
 [DF][DG][EA][Ed] [Ec] !fermata![Ec]2 [EA] | [DF]<[FB] [EA]>[EG] [EA]3 |] %14
w: ||
w: sol- dier he- roes sleep- ing, Shall|nev- er march a- gain.|
w: ||
w: ||
V:2
 x | x8 | x8 | x8 | x8 | x7 E | x8 | x8 | x7 || x | x8 | x8 | x8 | x7 |] %14
V:3
 [A,,A,] | [A,,A,][A,,A,] [A,,A,]>[A,,A,] [A,,A,] [A,,A,]2 [C,A,] | %2
 [D,A,][D,A,] [D,A,]>[D,A,] [A,,A,]3 [A,,A,] | %3
 [A,,A,][A,,A,] [A,,A,]>[A,,A,] [A,,A,] [A,,A,]2 [A,,A,] | %4
 [B,,F,][B,,F,] [B,,F,]>[B,,A,] [E,G,]3 [E,G,] | %5
 [E,G,][E,B,] [E,A,]>[=E,G,] [F,A,] [F,A,]2 [C,A,] | [D,A,]>[D,A,] [D,A,][D,A,] [A,,A,]3 [A,,A,] | %7
 [D,A,][D,B,][C,A,][B,,G,] [A,,A,] !fermata![A,,A,]2 [C,A,] | [D,A,]<[B,,D] [E,C]>[E,B,] [A,,C]3 || %9
 [A,C] | [E,E]<[E,E] [B,,=D]>[B,,D] [E,E]3 [E,E] | [A,E]<[A,E] [E,E]>[E,E] [A,E]3 [A,,A,] | %12
 [D,A,][D,B,][C,A,][B,,G,] [A,,A,] !fermata![A,,A,]2 [C,A,] | [D,A,]<[B,,D] [E,C]>[E,B,] [A,,C]3 |] %14

